X:5
T:O'Keefe's slide
T:Dan O'Keefe's slide
R:slide
N:transcribed by Alan Ng
H:Also played in ADor
Z:compare hn-slide-51
Z: id:ng-other-5 transcribed by Alan Ng agng@students.wisc.edu Oct. 14, 1998
M:12/8
K:EDor
E2B B2A FEF A2D|E2B B2A F2D DEF|E2B B2A FEF A3|FEF A2B F2E E3:|\
|:B2e e2f e2d B2A|B2e e2f e2d B2c|d2e d2B A2F D2E|FEF A2B F2E E3:|**
